X:1
T:God Is Still on the Throne
T:God Is Still on the Throne
T:Kittie Louise Suffield
T:Kittie Louise Suffield (1884-1972)
T:Public Domain Courtesy of the Cyber Hymnal™
T:Public Domain Courtesy of the Cyber Hymnal™
T:Public Domain Courtesy of the Cyber Hymnal™
C:Kittie Louise Suffield
Z:Public Domain
Z:Courtesy of the Cyber Hymnal™
%%score 1 ( 2 3 )
L:1/8
Q:1/4=100
M:6/8
K:Bb
V:1 treble 
V:2 bass 
V:3 bass 
V:1
 [B,D]/[CE]/ | [DF][DF][DF] [EG][EG][EG] | [DF] [Fd]4 ([^Fc]/[Fc]/) | [GB][GA][GB] [Ac][GB][EG] | %4
w: 1.~Have you|start- ed for glo- ry and|Heav- en? Have~you *|left this old world far be-|
w: 2.~Bur- dened|soul, is your heart grow- ing|wear- y With~the *|toil and the heat of the|
w: 3.~You may|live in a tent or a|cot- tage, Un- *|no- ticed by those who pass|
w: 4.~He is|com- ing a- gain, is the|prom- ise To~dis- *|ci- ples when He went a-|
 [DF]4 z [B,D]/[CE]/ | [DF][DF][DF] [EG][EG][EG] | [DF] [Fd]4 [Fd]/[Fd]/ | %7
w: hind? In your|heart is the Com- fort- er|dwell- ing? Can you|
w: day? Does it|seem that your path is more|thorn- y As you|
w: by; But a|man- sion for you He is|build- ing In that|
w: way; In like|man- ner as He has gone|from you, You will|
 [=Ed][Ec][EB] [EG][EA][EB] | [Ec]4 z [B,D]/[CE]/ | [DF][DF][DF] [EG][EG][EG] | %10
w: say, “Praise the Lord, He is|mine”? Have the|ones that once walked on the|
w: jour- ney a- long on life’s|way? Go a-|way and in se- cret be-|
w: beau- ti- ful ci- ty on|high; It will|out- shine the wealth and the|
w: see Him re- turn- ing some|day; Does His|tar- ry- ing cause you to|
 [DF] [Fd]4 [Fd]/[^Fc]/ | [GB][GA][GB] [Ac][GB][EG] | [DF]4 z ([DF]/[DF]/) | %13
w: high- way Go- ne|back, and you seem all a-|lone? Keep~your *|
w: fore Him Tell your|grief to the Sav- ior a-|lone; He~will *|
w: splen- dor Of the|rich- est on earth we have|known; He’s~the *|
w: won- der, Does it|seem He’s for- got- ten His|own? His *|
 [DB][EA][FB] [Fc]2 [FB]/[Fc]/ | [_Ad][Ac][Ad] [Ge]3 |!f! [Fd]2 [Fd] [Ec][DB][Ec] | %16
w: eyes on the prize, for the|home in the skies;|God is still on the|
w: light- en your care, for He|still an- swers prayer;|God is still on the|
w: ar- chi- tect true, and He’s|build- ing for you;|God is still on the|
w: prom- ise is true, He is|com- ing for you;|God is still on the|
 [DB]3- [DB]2 z ||"^Refrain" [DF]2 [DF] [DF][DB][Ec] | [Fd]3- [Fd]2 [^Fc] | %19
w: throne. *|||
w: throne. *|God is still on the|throne, * And|
w: throne. *|||
w: throne. *|||
 [GB][^FA][GB] [Ac][GB][EG] | [DF]3- [DF]2 [DF] | [EA][EA][EA] [EA][EG][EA] | %22
w: |||
w: He will re- mem- ber His|own; * Tho’|tri- als may press us and|
w: |||
w: |||
 [DB][DB][DB] [DB][Dc][Dd] | [=Ec][Ec][Ec] [EG][EA][EB] | [Ec]3- [Ec]2 z | %25
w: |||
w: bur- dens dis- tress us, He|nev- er will leave us a-|lone; *|
w: |||
w: |||
 [DF]2 [DF] [DF][DB][Ec] | [Fd]3- [Fd]2 [^Fc] | [GB][^FA][GB] [Ac][GB][EG] | [DF]4 z [DF] | %29
w: ||||
w: God is still on the|throne, * He|nev- er for- sak- eth His|own; His|
w: ||||
w: ||||
 [DB][EA][FB] [Fc]2 [FB]/[Fc]/ | [_Ad][Ac][Ad] [Ge]3 |!f! [Fd]2 [Fd] [Ec][DB][Ec] | [DB]3- [DB]2 |] %33
w: ||||
w: prom- ise is true, He will|not for- get you,|God is still on the|throne. *|
w: ||||
w: ||||
V:2
 [B,,F,]/[B,,F,]/ | [B,,B,][B,,B,][B,,B,] [B,,B,][B,,B,][B,,B,] | %2
 [B,,B,] [B,,B,]4 ([D,B,]/[D,B,]/) | [E,B,][E,C][E,B,] [E,E][E,E][E,B,] | %4
 [B,,B,]4 z [B,,F,]/[B,,F,]/ | [B,,B,][B,,B,][B,,B,] [B,,B,][B,,B,][B,,B,] | %6
 [B,,B,] [B,,B,]4 [B,,B,]/[B,,B,]/ | [C,B,][C,B,][C,B,] [C,B,][C,A,][C,G,] | %8
 [F,A,]4 z [B,,F,]/[B,,F,]/ | [B,,B,][B,,B,][B,,B,] [B,,B,][B,,B,][B,,B,] | %10
 [B,,B,] [B,,B,]4 [B,,B,]/[D,B,]/ | [E,B,][E,C][E,B,] [E,E][E,E][E,B,] | %12
 [B,,B,]4 z ([B,,B,]/[B,,B,]/) | [B,,F,][C,F,][D,F,] [F,A,]2 [D,B,]/[F,A,]/ | %14
 B,B,B, !fermata![E,B,]3 | [F,B,]2 [F,B,] [F,A,][F,G,][F,A,] | [B,,B,]3- [B,,B,]2 z || %17
 [B,,B,]3- [B,,B,] z [B,,F,] | [B,,B,][D,B,][F,B,] B,2 [D,B,] | %19
 [E,B,][E,C][E,B,] [E,E][E,E][E,B,] | [B,,B,]3- [B,,B,]2 [B,,B,] | %21
 [F,C][F,C][F,C] [F,C][F,C][F,C] | [G,B,][G,B,][G,B,] [G,B,][G,B,][G,B,] | %23
 [C,B,][C,B,][C,B,] [C,B,][C,A,][C,G,] | [F,A,]3- [F,A,]2 z | [B,,B,]3- [B,,B,] z [B,,F,] | %26
 [B,,B,][D,B,][F,B,] B,2 [D,B,] | [E,B,][E,C][E,B,] [E,E][E,E][E,B,] | [B,,B,]4 z [B,,B,] | %29
 [B,,F,][C,F,][D,F,] [F,A,]2 [D,B,]/[F,A,]/ | B,B,B, !fermata![E,B,]3 | %31
 [F,B,]2 [F,B,] [F,A,][F,G,][F,A,] | [B,,B,]3- [B,,B,]2 |] %33
V:3
 x | x6 | x6 | x6 | x6 | x6 | x6 | x6 | x6 | x6 | x6 | x6 | x6 | x6 | B,B,B, x3 | x6 | x6 || x6 | %18
 x3 B,2 x | x6 | x6 | x6 | x6 | x6 | x6 | x6 | x3 B,2 x | x6 | x6 | x6 | B,B,B, x3 | x6 | x5 |] %33

